<?xml version="1.0" encoding="UTF-8"?>
<map version="1.10" tiledversion="1.10.2" orientation="orthogonal" renderorder="right-down" width="244" height="23" tilewidth="16" tileheight="16" infinite="0" nextlayerid="5" nextobjectid="239">
 <editorsettings>
  <export target="TileLayer.csv" format="csv"/>
 </editorsettings>
 <tileset firstgid="1" source="../../spritesAndTilesResources/marioTilesSprites/testTileSet.tsx"/>
 <tileset firstgid="229" source="../../spritesAndTilesResources/marioTilesSprites/super_mario_sprite_sheet.tsx"/>
 <tileset firstgid="853" source="../../spritesAndTilesResources/marioTilesSprites/enemies.tsx"/>
 <layer id="1" name="Tile Layer 1" width="244" height="23">
  <data encoding="csv">
0,0,0,0,0,0,0,0,0,0,0,0,0,0,0,0,0,0,0,0,0,0,0,0,0,0,0,0,0,0,0,0,0,0,0,0,0,0,0,0,0,0,0,0,0,0,0,0,0,0,0,0,0,0,0,0,0,0,0,0,0,0,0,0,0,0,0,0,42,43,0,0,0,0,0,0,0,0,0,0,0,0,0,0,0,0,0,0,0,0,0,0,0,0,0,0,0,0,0,0,0,0,0,0,0,0,0,0,0,0,0,0,0,0,0,0,0,0,0,0,0,0,0,0,0,0,0,0,0,0,0,0,0,0,0,0,0,0,0,0,0,0,0,0,0,0,0,0,0,0,0,0,0,0,0,0,0,0,0,0,0,0,0,0,0,0,0,0,0,0,0,0,0,0,0,0,0,0,0,0,0,0,0,0,0,0,0,0,0,0,0,0,0,0,0,0,0,0,0,0,0,0,0,0,0,0,0,0,0,0,0,0,0,0,0,0,0,0,0,0,0,0,0,0,0,0,0,0,0,0,0,0,0,0,0,0,0,0,0,0,0,0,0,0,
0,0,0,0,0,0,0,0,0,0,0,0,0,0,0,0,0,0,0,0,0,0,0,0,0,0,0,0,0,0,0,0,0,0,0,0,0,0,0,0,0,0,0,0,0,0,0,0,0,0,0,0,0,0,0,0,0,0,0,0,0,0,0,0,0,0,0,0,61,62,0,0,0,0,0,0,0,0,0,0,0,0,0,0,0,0,0,0,0,0,0,0,0,0,0,0,0,0,0,0,0,0,0,0,0,0,0,0,0,0,0,0,0,0,0,0,0,0,0,0,0,0,0,0,0,0,0,0,0,0,0,0,0,0,0,0,0,0,0,0,0,0,0,0,0,0,0,0,0,0,0,0,0,0,0,0,0,0,0,0,0,0,0,0,0,0,0,0,0,0,0,0,0,0,0,0,0,0,0,0,0,0,0,0,0,0,0,0,0,0,0,0,0,0,0,0,0,0,0,0,0,0,0,0,0,0,0,0,0,0,0,0,0,0,0,0,0,0,0,0,0,0,0,0,0,0,0,0,0,0,0,0,0,0,0,0,0,0,0,0,0,0,0,0,
0,0,0,0,0,0,0,0,0,0,0,0,0,0,0,0,0,0,0,0,0,0,0,0,0,0,0,0,0,0,0,0,0,0,0,0,0,42,43,0,0,0,0,0,0,0,0,0,42,43,0,0,0,0,0,0,0,0,0,0,0,0,0,0,0,0,0,0,61,62,0,0,0,0,0,0,0,0,0,0,0,0,0,0,0,0,0,0,0,0,0,0,0,0,0,0,0,0,0,0,0,0,0,0,0,0,0,0,0,0,0,0,0,0,0,0,0,0,0,0,0,0,0,0,0,0,0,0,0,0,0,0,0,0,0,0,0,0,0,0,0,0,0,0,0,0,0,0,0,0,0,0,0,0,0,0,0,0,0,0,0,0,0,0,0,0,0,0,0,0,0,0,0,0,0,0,0,0,0,0,0,0,0,0,0,0,0,0,0,0,0,0,0,0,0,0,0,0,0,0,0,0,0,0,0,0,0,0,0,0,0,0,0,0,0,0,0,0,0,0,0,0,0,0,0,0,0,0,0,0,0,0,0,0,0,0,0,0,0,0,0,0,0,0,
0,0,0,0,0,0,0,0,0,0,0,0,0,0,0,0,0,0,0,0,0,0,0,0,0,0,0,0,0,0,0,0,0,0,0,0,0,61,62,0,0,0,0,0,0,0,0,0,61,62,0,0,0,0,0,0,0,0,0,0,0,0,0,0,0,0,0,0,61,62,0,0,0,0,0,0,0,0,0,0,0,0,0,0,0,0,0,0,0,0,0,0,0,0,0,0,0,0,0,0,0,0,0,0,0,0,0,0,0,0,0,0,0,0,0,0,0,0,0,0,0,0,0,0,0,0,0,0,0,0,0,0,0,0,0,0,0,0,0,0,0,0,0,0,0,0,0,0,0,0,0,0,0,0,0,0,0,0,0,0,0,0,0,0,0,0,0,0,0,0,0,0,0,0,0,0,0,0,0,0,0,0,0,0,0,0,0,0,0,0,0,0,0,0,0,0,0,0,0,0,0,0,0,0,0,0,0,0,0,0,0,0,0,0,0,0,0,0,0,0,0,0,0,0,0,0,0,0,0,0,0,0,0,0,0,0,0,0,0,0,0,0,0,0,
0,0,0,0,0,0,0,0,0,0,0,0,0,0,0,0,0,0,0,0,0,0,0,0,0,0,0,0,0,0,0,0,0,0,0,0,0,61,62,0,0,0,0,0,0,0,0,0,61,62,0,0,0,0,0,0,0,0,0,0,0,0,0,0,0,0,0,0,42,43,0,0,0,0,0,0,0,0,0,0,0,0,0,0,0,0,0,0,0,0,0,0,0,0,0,0,0,0,0,0,0,0,0,0,0,0,0,0,0,0,0,0,0,0,0,0,0,0,0,0,0,0,0,0,0,0,0,0,0,0,0,0,0,0,0,0,0,0,0,0,0,0,0,0,0,0,0,0,0,0,0,0,0,0,0,0,0,0,0,0,0,0,0,0,0,0,0,0,0,0,0,0,0,0,0,0,0,0,0,0,0,0,0,0,0,0,0,0,0,0,0,0,0,0,0,0,0,0,0,0,0,0,0,0,0,0,0,0,0,0,0,0,0,0,0,0,0,0,0,0,0,0,0,0,0,0,0,0,0,0,0,0,0,0,0,0,0,0,0,0,0,0,0,0,
0,0,0,0,0,0,0,0,0,0,0,0,0,0,0,49,49,49,49,49,49,49,0,0,0,0,0,0,0,0,0,0,0,0,0,0,0,61,62,0,0,0,0,0,0,0,0,0,61,62,0,0,0,0,0,0,0,0,0,0,0,0,0,0,0,0,0,0,61,62,0,0,0,0,0,0,0,0,0,0,0,0,0,0,0,0,0,0,0,0,0,0,0,0,0,0,0,0,0,0,0,0,0,0,0,0,0,0,0,0,0,0,0,0,0,0,0,0,0,0,0,0,0,0,0,0,0,0,0,0,0,0,0,0,0,0,0,0,0,0,0,0,0,0,0,0,0,0,0,0,0,0,0,0,0,0,0,0,0,0,0,0,0,0,0,0,0,0,0,0,0,0,0,0,0,0,0,0,0,0,0,0,0,0,0,0,0,0,0,0,0,0,0,0,0,0,0,0,0,0,0,0,0,0,0,0,0,0,0,0,0,0,0,0,0,0,0,0,0,0,0,0,0,0,0,0,0,0,0,0,0,0,0,0,0,0,0,0,0,0,0,0,0,0,
0,0,0,0,0,0,0,0,0,0,0,0,0,0,0,0,0,0,0,0,0,0,0,0,0,0,0,0,0,0,0,0,0,0,0,0,0,61,62,0,0,0,0,0,0,0,0,0,42,43,0,0,0,0,0,0,0,0,0,0,0,0,0,0,0,0,0,0,61,62,0,0,0,0,0,0,0,0,0,0,0,0,0,0,0,0,0,0,0,0,0,0,0,0,0,0,0,0,0,0,0,0,0,0,0,0,0,0,0,0,0,0,0,0,0,0,0,0,0,0,0,0,0,0,0,0,0,0,0,0,0,0,0,0,0,0,0,0,0,0,0,0,0,0,0,0,0,0,0,0,0,0,0,0,0,0,0,0,0,0,0,0,0,0,0,0,0,0,0,0,0,0,0,0,0,0,0,0,0,0,0,0,0,0,0,0,0,0,0,0,0,0,0,0,0,0,0,0,0,0,0,0,0,0,0,0,0,0,0,0,0,0,0,0,0,0,0,0,0,0,0,0,0,0,0,0,0,0,0,0,0,0,0,0,0,0,0,0,0,0,0,0,0,0,
0,0,0,0,0,0,0,0,0,0,0,0,0,0,0,0,0,0,0,0,0,0,0,0,0,0,0,0,0,0,0,0,0,0,0,0,0,61,62,0,0,0,0,0,0,0,0,0,61,62,0,0,0,0,0,0,0,0,0,0,0,0,0,0,0,0,0,0,61,62,0,0,0,0,0,0,0,0,0,0,0,0,0,0,0,0,0,0,0,0,0,0,0,0,0,0,0,0,0,0,0,0,0,0,0,0,0,0,0,0,0,0,0,0,0,0,0,0,0,0,0,0,0,0,0,0,0,0,0,0,0,0,0,0,0,0,0,0,0,0,0,0,0,0,0,0,0,0,0,0,0,0,0,0,0,0,0,0,0,0,0,0,0,0,0,0,0,0,0,0,0,0,0,0,0,0,0,0,0,0,0,0,0,0,0,0,0,0,0,0,0,0,0,0,0,0,0,0,0,0,0,0,0,0,0,0,0,0,0,0,0,0,0,0,0,0,0,8,0,0,0,0,0,0,0,0,0,0,0,0,0,0,0,0,0,0,0,0,0,0,0,0,0,0,
0,0,0,0,0,0,0,0,0,0,0,0,0,49,49,49,49,0,0,0,49,49,49,49,0,0,0,0,0,0,0,0,0,0,0,0,0,61,62,0,0,0,0,0,0,0,0,0,61,62,0,0,0,0,0,0,0,0,0,0,0,0,0,0,0,0,0,0,0,0,0,0,0,0,0,0,0,0,0,0,0,0,0,0,0,0,0,0,0,0,0,0,0,0,0,0,0,0,0,0,0,0,0,0,0,0,0,0,0,0,0,0,0,0,0,0,0,0,0,0,0,0,0,0,0,0,0,0,0,0,0,0,0,0,0,0,0,0,0,0,0,0,0,0,0,0,0,0,0,0,0,0,0,0,0,0,0,0,0,0,0,0,0,0,0,0,0,0,0,0,0,0,0,0,0,0,0,0,0,0,0,0,0,0,0,0,0,0,0,0,0,0,0,0,0,0,0,0,0,0,0,0,0,0,0,0,0,0,0,0,0,0,0,0,0,0,0,5,0,0,0,0,0,0,0,0,0,0,0,0,0,0,0,0,0,0,0,0,0,0,0,0,0,0,
0,0,0,0,0,0,0,0,0,0,0,0,0,0,0,0,0,0,0,0,0,0,0,0,0,0,0,0,0,0,0,0,0,0,0,0,0,61,62,0,0,0,0,0,0,0,0,0,61,62,0,0,0,0,0,0,0,0,0,0,0,0,0,0,0,0,0,0,0,0,0,0,0,0,0,0,0,0,0,0,0,0,0,0,0,0,0,0,0,0,0,0,0,0,0,0,0,0,0,0,0,0,0,0,0,0,0,0,0,0,0,0,0,0,0,0,0,0,0,0,0,0,0,0,0,0,0,0,0,0,0,0,0,0,0,0,0,0,0,0,0,0,0,0,0,0,0,0,0,0,0,0,0,0,0,0,0,0,0,0,0,0,0,0,0,0,0,0,0,0,0,0,0,0,0,0,0,0,0,0,0,0,0,0,0,0,0,0,0,0,0,0,0,0,0,0,0,0,0,0,0,0,0,0,0,0,0,0,0,0,0,0,0,0,0,0,0,5,0,0,0,0,0,0,0,0,0,0,0,0,0,0,0,0,0,0,0,0,0,0,0,0,0,0,
3,3,3,3,3,3,3,0,0,0,0,0,0,0,0,0,0,0,0,0,0,0,0,0,0,0,0,0,0,0,0,0,0,0,0,0,0,61,62,0,0,0,0,0,0,0,0,0,0,0,0,0,0,0,0,0,0,0,0,0,0,0,0,0,0,0,0,0,0,0,0,0,0,0,0,0,0,0,0,0,0,0,0,0,0,0,0,0,0,0,0,0,0,0,0,0,0,0,0,0,0,0,0,0,0,0,0,0,0,0,0,0,0,0,0,0,0,0,0,0,0,0,0,0,0,0,0,0,0,0,0,0,0,0,0,0,0,0,0,0,0,0,0,0,0,0,0,0,0,0,0,0,0,0,0,0,0,0,0,0,0,0,0,0,0,0,0,0,0,0,0,0,0,0,0,0,0,0,0,0,0,0,0,0,0,0,0,0,0,0,0,0,0,0,0,0,0,0,0,0,0,0,0,0,0,0,0,0,0,0,0,0,0,0,0,0,0,5,0,0,0,0,0,0,0,0,0,0,0,0,0,0,0,0,0,0,0,0,0,0,0,0,0,0,
0,0,0,0,0,0,0,0,0,0,0,0,0,0,0,0,0,0,0,0,0,0,0,0,0,0,0,0,0,0,0,0,0,0,0,0,0,0,0,0,0,0,0,0,0,0,0,0,0,0,0,0,0,0,0,0,0,0,0,0,0,0,0,0,0,0,0,0,0,0,0,0,0,0,0,0,0,0,0,0,0,0,0,0,0,0,0,0,0,0,0,0,0,0,0,0,0,0,0,0,0,0,0,0,0,0,0,0,0,0,0,0,0,0,0,0,0,0,0,0,0,0,0,0,0,0,0,0,0,0,0,0,0,0,0,0,0,0,0,0,0,0,0,0,0,0,0,0,0,0,0,0,0,0,0,0,0,0,0,0,0,0,0,0,0,0,0,0,0,0,0,0,0,0,0,0,0,0,0,0,0,0,0,0,0,0,0,0,0,0,0,0,0,0,0,0,0,0,0,0,0,0,0,0,0,0,0,0,3,3,0,0,0,0,0,0,0,5,0,0,0,0,0,0,0,0,0,0,0,0,0,0,0,0,0,0,0,0,0,0,0,0,0,0,
0,0,0,0,0,0,0,0,0,0,0,0,0,0,0,0,0,0,0,0,0,0,0,0,0,0,0,0,0,0,0,0,0,0,0,0,0,0,0,0,0,0,0,0,0,0,0,0,0,0,0,0,0,0,0,0,0,0,0,0,0,0,0,0,0,0,0,0,0,0,0,0,0,0,0,0,0,0,0,0,0,0,0,0,0,0,49,49,49,49,49,49,49,0,0,0,49,49,3,0,0,0,0,0,0,0,0,0,0,0,0,0,0,0,0,3,0,0,0,0,0,0,0,0,0,0,0,0,0,0,0,0,0,0,0,0,0,0,0,0,0,0,0,0,0,0,0,0,0,0,0,0,0,0,0,0,0,0,0,0,0,0,0,0,0,0,0,0,0,0,0,0,0,0,0,0,0,0,0,0,0,0,0,0,0,0,0,0,0,0,0,0,0,0,0,0,0,0,0,0,0,0,0,0,0,0,0,3,3,3,0,0,0,0,0,0,0,5,0,0,0,0,0,0,0,0,0,0,0,0,0,0,0,0,0,0,0,0,0,0,0,0,0,0,
0,0,0,0,0,0,0,0,0,0,0,0,0,0,0,0,0,0,0,0,0,0,0,0,0,0,0,0,0,0,0,0,0,0,0,0,0,0,0,0,0,0,0,0,0,0,0,0,0,0,0,0,0,0,0,0,0,0,0,0,0,0,0,0,0,0,0,0,0,0,0,0,0,0,0,0,0,0,0,0,0,0,0,0,0,0,0,0,0,0,0,0,0,0,0,0,0,0,0,0,0,0,0,0,0,0,0,0,0,0,0,0,0,0,0,0,0,0,0,0,0,0,0,0,0,0,0,0,0,0,0,0,0,0,0,0,0,0,0,0,0,0,0,0,0,0,0,0,0,0,0,0,0,0,0,0,0,0,0,0,0,0,0,0,0,0,0,0,0,0,0,0,0,0,0,0,0,0,0,0,0,0,0,0,0,0,0,0,0,0,0,0,0,0,0,0,0,0,0,0,0,0,0,0,0,0,3,3,3,3,0,0,0,0,0,0,0,5,0,0,0,0,30,30,30,30,30,0,0,0,0,0,0,0,0,0,0,0,0,0,0,0,0,0,
0,0,0,0,0,0,0,0,0,0,0,0,0,0,0,0,0,0,0,0,0,0,0,0,0,0,0,0,0,0,0,0,0,0,0,0,0,0,0,0,0,0,0,0,0,0,0,0,0,0,0,0,0,0,0,0,0,0,0,0,0,0,0,0,0,0,0,0,0,0,0,0,0,0,0,0,0,0,0,0,0,0,0,0,0,0,0,0,0,0,0,0,0,0,0,0,0,0,0,0,0,0,0,0,0,0,0,0,0,0,0,0,0,0,0,0,0,0,0,0,0,0,0,0,0,0,0,0,0,0,0,0,0,0,0,0,0,0,0,0,0,0,0,0,0,0,0,0,0,0,0,0,0,0,0,0,0,0,0,0,0,0,0,0,0,0,0,0,0,0,0,0,0,0,0,0,0,0,0,0,0,0,0,0,0,0,0,0,0,0,0,0,0,0,0,0,0,0,0,0,0,0,0,0,0,3,3,3,3,3,0,0,0,0,0,0,0,5,0,0,0,0,49,49,49,49,49,0,0,0,0,0,0,0,0,0,0,0,0,0,0,0,0,0,
0,0,0,0,0,0,0,0,0,0,0,0,0,0,0,0,0,0,0,0,0,0,0,0,0,0,0,0,0,0,0,0,0,0,0,0,0,0,0,0,0,0,0,0,0,0,0,0,0,0,0,0,0,0,0,0,0,0,0,0,0,0,0,0,0,0,0,0,0,0,0,0,0,0,0,0,0,0,0,0,0,0,0,0,0,0,0,0,0,0,0,0,0,0,0,0,0,0,0,0,0,0,0,0,0,0,0,0,0,0,0,0,0,0,0,0,0,0,0,0,0,0,0,0,0,0,0,0,0,0,0,0,0,0,0,0,0,0,0,0,0,0,0,0,0,0,0,0,0,0,0,0,0,0,0,0,0,0,0,3,0,0,3,0,0,0,0,0,0,0,0,0,0,0,0,0,0,0,0,0,0,0,0,0,0,0,0,0,0,0,0,0,0,0,0,0,0,0,0,0,0,0,0,0,3,3,3,3,3,3,0,0,0,0,0,0,0,5,0,0,0,0,68,69,49,68,69,0,0,0,0,0,0,0,0,0,0,0,0,0,0,42,43,0,
0,0,0,0,0,0,0,0,0,0,0,0,0,0,0,0,0,0,0,0,0,0,0,0,0,0,3,3,3,3,3,3,3,3,3,0,3,3,3,3,0,0,0,0,0,0,0,0,0,0,0,42,43,0,0,0,0,0,0,0,0,0,0,0,0,42,43,0,0,0,0,0,0,0,0,0,0,0,0,49,49,49,49,49,3,49,49,49,49,49,0,0,0,0,0,0,0,0,49,0,0,0,0,0,0,49,49,49,0,0,0,3,0,0,0,3,0,0,0,3,0,0,0,0,0,0,0,0,0,0,0,0,0,3,0,0,3,0,0,0,0,0,0,0,0,0,0,0,0,0,0,0,0,0,0,0,0,0,3,3,0,0,3,3,0,0,0,0,0,0,0,0,0,0,0,0,0,0,0,0,0,0,0,0,0,0,0,0,0,0,0,0,0,0,0,0,0,0,0,0,0,0,0,3,3,3,3,3,3,3,0,0,0,0,0,0,0,5,0,0,0,30,11,11,11,11,11,30,0,0,0,0,0,0,0,0,0,0,0,0,0,61,62,0,
0,0,0,0,0,0,0,27,0,0,0,0,0,0,0,0,0,0,0,0,0,0,0,0,0,0,0,0,0,0,0,0,0,0,0,0,0,0,42,43,0,0,0,0,0,0,0,0,0,0,0,61,62,0,0,27,0,0,0,0,0,0,0,0,0,61,62,0,0,0,0,0,0,0,0,0,0,0,0,27,0,0,0,0,0,0,0,0,0,0,0,0,0,0,0,0,0,0,0,0,0,0,0,0,0,0,0,0,0,0,0,0,0,0,0,27,0,0,0,0,0,0,0,0,0,0,0,0,0,0,0,0,3,3,0,0,3,3,0,0,0,0,0,0,0,0,0,27,0,0,0,0,0,0,0,0,0,3,3,3,0,0,3,3,3,0,0,0,0,0,0,0,0,0,0,0,0,0,49,49,49,3,49,49,49,0,0,0,0,27,0,0,0,0,0,0,0,0,0,0,0,0,3,3,3,3,3,3,3,3,0,0,0,27,0,0,0,5,0,0,0,49,49,49,49,49,49,49,0,0,0,0,0,0,0,0,0,0,0,0,0,61,62,0,
0,0,0,0,0,44,45,46,47,48,0,0,0,0,0,0,0,0,0,0,0,0,0,0,0,42,43,0,0,0,0,0,0,0,0,0,0,0,61,62,0,3,0,3,0,3,0,3,0,3,0,61,62,44,45,46,47,48,0,0,0,0,0,0,0,61,62,0,0,0,0,0,0,0,0,0,0,44,45,46,47,48,0,0,0,0,0,0,0,0,0,0,0,0,0,0,0,0,0,0,0,0,0,0,0,0,0,0,0,0,0,0,0,44,45,46,47,48,0,0,0,0,0,0,0,0,0,0,0,0,0,3,3,3,0,0,3,3,3,0,0,0,0,0,0,44,45,46,47,48,0,0,0,0,0,0,3,3,3,3,0,0,3,3,3,3,0,0,0,0,0,0,42,43,0,0,0,0,0,0,0,0,0,0,0,0,0,44,45,46,47,48,0,0,0,0,0,0,42,43,0,3,3,3,3,3,3,3,3,3,0,44,45,46,47,48,0,5,0,0,0,49,49,49,31,49,49,49,0,0,0,0,0,0,0,0,0,0,0,82,83,84,62,0,
0,0,0,0,0,63,64,65,1,67,0,0,0,0,0,0,0,0,20,21,22,1,0,0,0,61,62,3,3,0,0,0,0,0,0,20,21,22,61,62,0,3,0,0,0,0,20,21,22,0,0,61,62,63,64,65,66,67,0,0,0,0,20,21,22,61,62,0,0,0,0,0,0,0,0,0,0,63,64,65,66,67,0,0,0,0,0,20,21,22,0,0,0,0,0,20,21,22,0,0,0,1,0,20,21,22,20,21,22,0,0,0,0,63,64,65,66,67,0,0,0,0,1,0,20,21,22,0,0,0,3,3,3,3,0,0,3,3,3,3,0,0,0,0,0,63,64,65,66,67,0,0,0,0,0,3,3,3,3,3,0,0,3,3,3,3,3,0,0,0,0,0,61,62,0,0,0,0,0,0,0,0,0,0,0,0,0,63,64,65,66,67,0,0,0,0,0,0,61,62,3,3,3,3,3,3,3,3,3,3,0,63,64,65,66,67,0,3,0,0,0,49,49,49,50,49,49,49,0,0,0,0,0,0,0,0,0,0,0,101,102,103,62,0,
1,1,1,1,1,1,1,1,1,1,1,1,1,1,1,1,1,1,1,1,1,1,1,1,1,1,1,1,1,1,1,1,1,1,1,1,1,1,1,1,1,1,1,1,1,1,1,1,1,1,1,1,1,1,1,1,1,1,1,1,1,1,1,1,1,1,1,1,1,1,1,1,0,0,1,1,1,1,1,1,1,1,1,1,1,1,1,1,1,1,1,0,0,0,0,1,1,1,1,1,1,1,1,1,1,1,1,1,1,1,1,1,1,1,1,1,1,1,1,1,1,1,1,1,1,1,1,1,1,1,1,1,1,1,1,1,1,1,1,1,1,1,1,1,1,1,1,1,1,1,1,1,1,1,1,1,1,1,1,1,0,0,1,1,1,1,1,1,1,1,1,1,1,1,1,1,1,1,1,1,1,1,1,1,1,1,1,1,1,1,1,1,1,1,1,1,1,1,1,1,1,1,1,1,1,1,1,1,1,1,1,1,1,1,1,1,1,1,1,1,1,1,1,1,1,1,1,1,1,1,1,1,1,1,1,1,1,1,1,1,1,1,1,1,
1,1,1,1,1,1,1,1,1,1,1,1,1,1,1,1,1,1,1,1,1,1,1,1,1,1,1,1,1,1,1,1,1,1,1,1,1,1,1,1,1,1,1,1,1,1,1,1,1,1,1,1,1,1,1,1,1,1,1,1,1,1,1,1,1,1,1,1,1,1,1,1,0,0,1,1,1,1,1,1,1,1,1,1,1,1,1,1,1,1,1,0,0,0,0,1,1,1,1,1,1,1,1,1,1,1,1,1,1,1,1,1,1,1,1,1,1,1,1,1,1,1,1,1,1,1,1,1,1,1,1,1,1,1,1,1,1,1,1,1,1,1,1,1,1,1,1,1,1,1,1,1,1,1,1,1,1,1,1,1,0,0,1,1,1,1,1,1,1,1,1,1,1,1,1,1,1,1,1,1,1,1,1,1,1,1,1,1,1,1,1,1,1,1,1,1,1,1,1,1,1,1,1,1,1,1,1,1,1,1,1,1,1,1,1,1,1,1,1,1,1,1,1,1,1,1,1,1,1,1,1,1,1,1,1,1,1,1,1,1,1,1,1,1,
1,1,1,1,1,1,1,1,1,1,1,1,1,1,1,1,1,1,1,1,1,1,1,1,1,1,1,1,1,1,1,1,1,1,1,1,1,1,1,1,1,1,1,1,1,1,1,1,1,1,1,1,1,1,1,1,1,1,1,1,1,1,1,1,1,1,1,1,1,1,1,1,0,0,1,1,1,1,1,1,1,1,1,1,1,1,1,1,1,1,1,0,0,0,0,1,1,1,1,1,1,1,1,1,1,1,1,1,1,1,1,1,1,1,1,1,1,1,1,1,1,1,1,1,1,1,1,1,1,1,1,1,1,1,1,1,1,1,1,1,1,1,1,1,1,1,1,1,1,1,1,1,1,1,1,1,1,1,1,1,0,0,1,1,1,1,1,1,1,1,1,1,1,1,1,1,1,1,1,1,1,1,1,1,1,1,1,1,1,1,1,1,1,1,1,1,1,1,1,1,1,1,1,1,1,1,1,1,1,1,1,1,1,1,1,1,1,1,1,1,1,1,1,1,1,1,1,1,1,1,1,1,1,1,1,1,1,1,1,1,1,1,1,1
</data>
 </layer>
 <objectgroup id="2" name="Enemies">
  <properties>
   <property name="xTile" type="int" value="13"/>
   <property name="yTile" type="int" value="15"/>
  </properties>
  <object id="29" type="Koopatroopa" gid="275" x="2858" y="320" width="16" height="16">
   <properties>
    <property name="direction" value="left"/>
    <property name="scalefactor" type="int" value="2"/>
   </properties>
  </object>
  <object id="30" type="Koopatroopa" gid="275" x="3054" y="320" width="16" height="16">
   <properties>
    <property name="direction" value="right"/>
    <property name="scalefactor" type="int" value="2"/>
   </properties>
  </object>
  <object id="114" type="Goomba" gid="272" x="938.333" y="320" width="16" height="16">
   <properties>
    <property name="direction" value="left"/>
    <property name="scalefactor" type="int" value="2"/>
   </properties>
  </object>
  <object id="178" type="Koopatroopa" gid="275" x="491.333" y="320" width="16" height="16">
   <properties>
    <property name="direction" value="left"/>
    <property name="scalefactor" type="int" value="2"/>
   </properties>
  </object>
  <object id="184" type="Goomba" gid="272" x="1076" y="318" width="16" height="16">
   <properties>
    <property name="direction" value="right"/>
    <property name="scalefactor" type="int" value="2"/>
   </properties>
  </object>
  <object id="228" type="Goomba" gid="272" x="258" y="77.333" width="16" height="16">
   <properties>
    <property name="direction" value="left"/>
    <property name="scalefactor" type="int" value="2"/>
   </properties>
  </object>
  <object id="232" type="Koopatroopa" gid="275" x="304" y="61.3333" width="16" height="16">
   <properties>
    <property name="direction" value="left"/>
    <property name="scalefactor" type="int" value="2"/>
   </properties>
  </object>
  <object id="235" type="Goomba" gid="272" x="223.333" y="255.333" width="16" height="16">
   <properties>
    <property name="direction" value="left"/>
    <property name="scalefactor" type="int" value="2"/>
   </properties>
  </object>
  <object id="236" type="Goomba" gid="272" x="1462" y="175.333" width="16" height="16">
   <properties>
    <property name="direction" value="left"/>
    <property name="scalefactor" type="int" value="2"/>
   </properties>
  </object>
  <object id="237" type="Goomba" gid="272" x="1374" y="232.667" width="16" height="16">
   <properties>
    <property name="direction" value="left"/>
    <property name="scalefactor" type="int" value="2"/>
   </properties>
  </object>
  <object id="238" type="Goomba" gid="272" x="1328.67" y="253.333" width="16" height="16">
   <properties>
    <property name="direction" value="left"/>
    <property name="scalefactor" type="int" value="2"/>
   </properties>
  </object>
 </objectgroup>
 <objectgroup id="4" name="SpritesAsActions">
  <object id="34" type="EndRope" gid="725" x="3472" y="176" width="16" height="16">
   <properties>
    <property name="tilesDown" type="int" value="10"/>
   </properties>
  </object>
  <object id="37" type="EndRope" gid="725" x="3472" y="304" width="16" height="16">
   <properties>
    <property name="tilesDown" type="int" value="10"/>
   </properties>
  </object>
  <object id="39" type="EndRope" gid="725" x="3472" y="288" width="16" height="16">
   <properties>
    <property name="tilesDown" type="int" value="10"/>
   </properties>
  </object>
  <object id="40" type="EndRope" gid="725" x="3472" y="272" width="16" height="16">
   <properties>
    <property name="tilesDown" type="int" value="10"/>
   </properties>
  </object>
  <object id="44" type="EndRope" gid="725" x="3472" y="256" width="16" height="16">
   <properties>
    <property name="tilesDown" type="int" value="10"/>
   </properties>
  </object>
  <object id="46" type="EndRope" gid="725" x="3472" y="240" width="16" height="16">
   <properties>
    <property name="tilesDown" type="int" value="10"/>
   </properties>
  </object>
  <object id="47" type="EndRope" gid="725" x="3472" y="224" width="16" height="16">
   <properties>
    <property name="tilesDown" type="int" value="10"/>
   </properties>
  </object>
  <object id="48" type="EndRope" gid="725" x="3472" y="208" width="16" height="16">
   <properties>
    <property name="tilesDown" type="int" value="10"/>
   </properties>
  </object>
  <object id="49" type="EndRope" gid="725" x="3472" y="192" width="16" height="16">
   <properties>
    <property name="tilesDown" type="int" value="10"/>
   </properties>
  </object>
  <object id="50" type="EndRope" gid="725" x="3472" y="160" width="16" height="16">
   <properties>
    <property name="tilesDown" type="int" value="10"/>
   </properties>
  </object>
  <object id="51" type="EndRope" gid="725" x="3472" y="144" width="16" height="16">
   <properties>
    <property name="tilesDown" type="int" value="10"/>
   </properties>
  </object>
  <object id="204" type="Te" gid="699" x="3472" y="128" width="16" height="16">
   <properties>
    <property name="tilesDown" type="int" value="10"/>
   </properties>
  </object>
  <object id="166" type="Coin" gid="255" x="670" y="320" width="16" height="16">
   <properties>
    <property name="scaleFactor" type="int" value="2"/>
   </properties>
  </object>
  <object id="168" type="Coin" gid="255" x="289" y="288" width="16" height="16">
   <properties>
    <property name="scaleFactor" type="int" value="2"/>
   </properties>
  </object>
  <object id="172" type="Coin" gid="255" x="334.5" y="302" width="16" height="16">
   <properties>
    <property name="scaleFactor" type="int" value="2"/>
   </properties>
  </object>
  <object id="173" type="Coin" gid="255" x="369" y="306" width="16" height="16">
   <properties>
    <property name="scaleFactor" type="int" value="2"/>
   </properties>
  </object>
  <object id="174" type="Coin" gid="255" x="193.5" y="300.5" width="16" height="16">
   <properties>
    <property name="scaleFactor" type="int" value="2"/>
   </properties>
  </object>
  <object id="175" type="Coin" gid="255" x="235.5" y="303.5" width="16" height="16">
   <properties>
    <property name="scaleFactor" type="int" value="2"/>
   </properties>
  </object>
  <object id="176" type="Coin" gid="255" x="426" y="253" width="16" height="16">
   <properties>
    <property name="scaleFactor" type="int" value="2"/>
   </properties>
  </object>
  <object id="107" type="NpcBrick" gid="49" x="208" y="272" width="16" height="16">
   <properties>
    <property name="NpcType" value="coin"/>
    <property name="Occurences" type="int" value="5"/>
   </properties>
  </object>
  <object id="138" type="NpcBrick" gid="49" x="208" y="192" width="16" height="16">
   <properties>
    <property name="NpcType" value="coin"/>
    <property name="Occurences" type="int" value="10"/>
   </properties>
  </object>
  <object id="139" type="NpcBrick" gid="49" x="224" y="272" width="16" height="16">
   <properties>
    <property name="NpcType" value="coin"/>
    <property name="Occurences" type="int" value="1"/>
   </properties>
  </object>
  <object id="141" type="NpcBrick" gid="49" x="224" y="176" width="16" height="16">
   <properties>
    <property name="NpcType" value="coin"/>
    <property name="Occurences" type="int" value="1"/>
    <property name="Visibility" type="bool" value="false"/>
   </properties>
  </object>
  <object id="142" type="NpcBrick" gid="49" x="256" y="272" width="16" height="16">
   <properties>
    <property name="NpcType" value="coin"/>
    <property name="Occurences" type="int" value="2"/>
    <property name="Visibility" type="bool" value="false"/>
   </properties>
  </object>
  <object id="143" type="NpcBrick" gid="49" x="288" y="224" width="16" height="16">
   <properties>
    <property name="NpcType" value="coin"/>
    <property name="Occurences" type="int" value="2"/>
    <property name="Visibility" type="bool" value="false"/>
   </properties>
  </object>
  <object id="144" type="NpcBrick" gid="49" x="288" y="160" width="16" height="16">
   <properties>
    <property name="NpcType" value="coin"/>
    <property name="Occurences" type="int" value="2"/>
    <property name="Visibility" type="bool" value="false"/>
   </properties>
  </object>
  <object id="206" type="TerminationFlag" gid="724" x="3464" y="144" width="16" height="16">
   <properties>
    <property name="scaleFactor" type="int" value="2"/>
    <property name="tilesDown" type="int" value="10"/>
   </properties>
  </object>
  <object id="209" type="Coin" gid="255" x="204.5" y="312.5" width="16" height="16">
   <properties>
    <property name="scaleFactor" type="int" value="2"/>
   </properties>
  </object>
  <object id="233" type="NpcBrick" gid="49" x="192" y="272" width="16" height="16">
   <properties>
    <property name="NpcType" value="coin"/>
    <property name="Occurences" type="int" value="5"/>
   </properties>
  </object>
  <object id="234" type="NpcBrick" gid="49" x="176" y="272" width="16" height="16">
   <properties>
    <property name="NpcType" value="coin"/>
    <property name="Occurences" type="int" value="5"/>
   </properties>
  </object>
 </objectgroup>
</map>
